!! 00000] TT[
!!!OTL: Yue er wan wan zhao jiu zhou
!!!ARE: Asia, China,ˇnan Jiangsu
!! Ethnic Group: Han
!! MM, ZHONGGUO MINGE XUAN S.154
!!!SCT: C1304
!!!YEM: Copyright 1995, estate of Helmut Schaffrath.
**kern
*ICvox
*Ivox
*M2/4
*k[b-e-]
*B-:
{16b-
16g
4b-
8cc
=1
8.dd
16cc
4dd
=2
8ff
16dd
16cc
8b-
16g
16b-
=3
2cc}
=4
{8cc
8cc
4dd
=5
16cc
16dd
16cc
16b-
4g
=6
8b-
8dd
16cc
16b-
8g
=7
2f}
=8
{8ff
16dd
16cc
4b-
=9
16cc
16dd
16b-
16cc
4dd
=10
8ff
16dd
16cc
8.b-
16dd
=11
16cc
16b-
4.g}
=12
{8cc
8cc
4dd
=13
16cc
16dd
16cc
16b-
4g
=14
8g
8b-
16b-
16cc
16dd
16b-
=15
[4cc
16cc]
16dd
16b-
16g
=16
2f}
==
!!!AGN: Xiaodiao, Shidiao, MengjiangnÅ diao. Lichou
!! Pinyin-Text der ersten Strophe vorhanden!
!!!ONB: ESAC (Essen Associative Code) Database: CHINA
!!!AMT: simple duple
!!!AIN: vox
!!!EED: Helmut Schaffrath
!!!EEV: 1.0
*-
